X:1
T: Med-o-lark
C:Gordy Euler
R:Jig
Q: 180
K:D
M:6/8
L:1/16
|:D2F2E2 D2d2A2|Bcd2B2 A2F2A2|Bcd2Bc d2A2F2|G2A2B2 A,2B,2C2|
D2F2E2 D2d2A2|Bcd2B2 A2F2A2|Bcd2B2 A2F2A2|G2E2G2 F2D2C2:|
|:D2d2e2 f2d2c2|def2g2 a2f2f2|gab2g2 fga2f2|e2c2A2 A2G2E2|
D2d2e2 f2d2c2|def2g2 a2f2f2|gde2g2 f2d2A2|G2E2G2 F2D2C2:|
